X: 8570
T: Crock Of Gold, The
R: reel
M: 4/4
K: Dmajor
|:f3a fedB|d2de dBA2|ABde fede|f2af fee2|
f2fa fedB|d2de dBAB|d2cd BdAF|ABde fdd2:|
|:Bee2 fedB|e2fe dBAB|dBAF DEFA|BdAF FEE2|
Bee2 fede|e2fe dBAF|d2cd BdAF|ABde fdd2:|

